X:1
T:Title
%%score ( 1 2 ) ( 3 4 )
L:1/8
Q:1/4=140
M:3/4
K:G
V:1 treble nm="Grand Piano, Unnamed-000"
V:2 treble 
V:3 bass nm="Choir Pad, Brookfield, LM"
V:4 bass 
V:1
 D2 [DB]4 | [^DB]2 B2 A2 | E2 F2 G2 | [CA]2 [B,G]4 | G2 [Gc]4 | [GB]2 [EA]4 | [EG]2 [DF]4 | %7
w: By~Thomas~Bishop~Southgate,~1855 *|||||||
 [^CG]2 [DA]4 | [CD]2 [B,B]4 | [B,G]2 [CE]4 | [DE]2 [CA]4 | [^CG]2 [DF]4 | D2 d2 B2 | %13
w: ||||||
 [DG]2 [DF]2 [CE]2 | [EG]2 D2 [^CE]2 | [CF]2 [B,G]4- | [B,G]4 z2 |] %17
w: ||||
V:2
 x6 | z2 E4 | z2 C4 | x6 | x6 | x6 | x6 | x6 | x6 | x6 | x6 | x6 | z2 D4 | x6 | x6 | x6 | x6 |] %17
V:3
 [G,B,]2 [G,B,]4 | [G,B,]2 [C,C]4 | [C,A,]2 A,2 G,2 | [D,F,]2 [G,,G,]4 | [G,B,]2 [G,E]4 | %5
 [G,D]2 [C,C]4 | [^C,A,]2 [D,A,]4 | [E,A,]2 [F,A,]4 | [D,F,]2 [G,,G,]4 | [G,,G,]2 [C,G,]4 | %10
 [B,,^G,]2 [A,,A,]4 | [A,,A,]2 [D,A,]4 | [C,F,]2 [B,,G,]4 | [B,,G,]2 [C,G,]4 | %14
 [^C,_B,]2 =B,2 _B,2 | [D,A,]2 [G,,G,]4- | [G,,G,]4 z2 |] %17
V:4
 x6 | x6 | z2 D,4 | x6 | x6 | x6 | x6 | x6 | x6 | x6 | x6 | x6 | x6 | x6 | z2 D,4 | x6 | x6 |] %17

